X:333
T:Ingala
T:ABCBCB
Z:Jack Campin, http://www.campin.me.uk/
F:Jack Campin's Nine-Note Tunebook
% last edit 03-02-2013
S:http://www.duduk.com
M:3/4
L:1/4
Q:1/4=108
P:ABCBCB
K:DMin
P:A
 A     A A| A     G F    | G3-      |G3         |\
 G     A B| A     G(F/E/)| F3-      |F3        ||
P:B
 D     F A| G     F E    | D     F A| d     A F |\
 D     F A| G     F E    | D3-      | D3       ||
P:C
 d3-      | d3           |(d/c/) c c|(d/B/) B B |
(c/A/) A A|(B/G/) G G    |(A/F/) F F|(G/E/) E E||

